src/images/languages/en-US.svg

<?xml version="1.0" encoding="UTF-8"?>
<svg width="7410" height="3900" version="1.1" xmlns="http://www.w3.org/2000/svg" xmlns:xlink="http://www.w3.org/1999/xlink"><path d="m0 0h7410v3900h-7410" fill="#bf0a30"/><path d="m0 450h7410m0 600h-7410m0 600h7410m0 600h-7410m0 600h7410m0 600h-7410" stroke="#fff" stroke-width="300"/><path d="m0 0h2964v2100h-2964" fill="#002868"/><g fill="#fff"><g id="d"><g id="a"><g id="b"><g id="c"><path id="s" d="m247 90 70.534 217.08-184.66-134.16h228.25l-184.66 134.16z"/><use y="420" xlink:href="#s"/><use y="840" xlink:href="#s"/><use y="1260" xlink:href="#s"/></g><use y="1680" xlink:href="#s"/></g><use x="247" y="210" xlink:href="#c"/></g><use x="494" xlink:href="#a"/></g><use x="988" xlink:href="#d"/><use x="1976" xlink:href="#a"/><use x="2470" xlink:href="#b"/></g></svg>

<?xml version="1.0" encoding="UTF-8"?>
<svg width="1235" height="650" version="1.1" viewBox="0 0 7410 3900" xmlns="http://www.w3.org/2000/svg" xmlns:xlink="http://www.w3.org/1999/xlink"><script/><path d="M0,0h7410v3900H0" fill="#bf0a30"/><path d="M0,450H7410m0,600H0m0,600H7410m0,600H0m0,600H7410m0,600H0" stroke="#FFF" stroke-width="300"/><path d="M0,0h2964v2100H0" fill="#002868"/><g fill="#FFF"><g id="d"><g id="a"><g id="b"><g id="c"><path id="s" d="m247 90 70.534 217.08-184.66-134.16h228.25l-184.66 134.16z"/><use y="420" xlink:href="#s"/><use y="840" xlink:href="#s"/><use y="1260" xlink:href="#s"/></g><use y="1680" xlink:href="#s"/></g><use x="247" y="210" xlink:href="#c"/></g><use x="494" xlink:href="#a"/></g><use x="988" xlink:href="#d"/><use x="1976" xlink:href="#a"/><use x="2470" xlink:href="#b"/></g></svg>
